<?xml version="1.0" encoding="UTF-8"?>
<map version="1.10" tiledversion="1.10.2" orientation="orthogonal" renderorder="right-down" compressionlevel="0" width="3" height="4" tilewidth="16" tileheight="16" infinite="0" nextlayerid="11" nextobjectid="11">
 <properties>
  <property name="FloorIDs" value="UpperRoom 1, Nursery 31, Hallway_Nursery 31, Kitchen, LivingRoom, Hallway_Bedroom, Bedroom, Southern, Hallway_Corner, Corner, DiningRoom 18, DiningRoomHallway 18, FarUpperRoom MoreFloors:0, ExtendedCorner, ExtendedCornerNook, Hallway_LivingRoom, Foyer, ExtraRoom"/>
  <property name="ViewportFollowPlayer" type="bool" value="true"/>
  <property name="WallIDs" value="UpperRoom 11, Nursery 61, Hallway_Nursery 61, Kitchen, LivingRoom, Hallway_Bedroom, Bedroom, Southern_Left, Southern_Right, Corner, Hallway_Corner, DiningRoomMain, DiningRoomNook, DiningRoomHallway, FarUpperRoom MoreWalls:15, ExtendedCorner, ExtendedCornerNook, Hallway_LivingRoom, Foyer, ExtraRoom"/>
  <property name="Warp" value="28 38 Farm 64 15 29 38 Farm 64 15"/>
 </properties>
 <tileset firstgid="1" name="indoor" tilewidth="16" tileheight="16" tilecount="2176" columns="32">
  <image source="townInterior" width="512" height="1088"/>
 </tileset>
 <tileset firstgid="2177" name="untitled tile sheet" tilewidth="16" tileheight="16" tilecount="264" columns="12">
  <image source="farmhouse_tiles" width="192" height="352"/>
 </tileset>
 <tileset firstgid="2441" name="walls_and_floors" tilewidth="16" tileheight="16" tilecount="688" columns="16">
  <image source="walls_and_floors" width="256" height="688"/>
 </tileset>
 <layer id="1" name="Back" width="3" height="4">
  <data encoding="csv">
2614,2614,2614,
0,0,0,
2888,2887,2888,
2904,2903,2904
</data>
 </layer>
 <layer id="9" name="Back1" width="3" height="4">
  <data encoding="csv">
0,0,0,
0,0,0,
0,0,0,
0,0,0
</data>
 </layer>
 <layer id="2" name="Buildings" width="3" height="4">
  <data encoding="csv">
0,0,0,
2630,2630,2630,
2386,2387,2388,
2398,2399,2400
</data>
 </layer>
 <layer id="10" name="Buildings2" width="3" height="4">
  <data encoding="csv">
0,0,0,
2374,2375,2376,
0,0,0,
0,0,0
</data>
 </layer>
 <layer id="3" name="Front" width="3" height="4">
  <data encoding="csv">
2362,2363,2364,
2401,2402,2403,
2413,2414,2415,
0,0,0
</data>
 </layer>
 <objectgroup id="4" name="Back">
  <object id="1" name="TileData" x="0" y="16" width="48" height="48">
   <properties>
    <property name="FloorID" value="Nursery"/>
   </properties>
  </object>
 </objectgroup>
 <objectgroup id="5" name="Buildings">
  <object id="7" name="TileData" x="0" y="48" width="16" height="16">
   <properties>
    <property name="Action" value="Crib"/>
   </properties>
  </object>
  <object id="8" name="TileData" x="16" y="48" width="16" height="16">
   <properties>
    <property name="Action" value="Crib"/>
   </properties>
  </object>
  <object id="9" name="TileData" x="32" y="48" width="16" height="16">
   <properties>
    <property name="Action" value="Crib"/>
   </properties>
  </object>
 </objectgroup>
 <objectgroup id="6" name="Front"/>
</map>
